contributed-vectors/fretello.svg

<svg xmlns="http://www.w3.org/2000/svg" xml:space="preserve" style="fill-rule:evenodd;clip-rule:evenodd;stroke-linejoin:round;stroke-miterlimit:2" viewBox="0 0 192 192"><path d="M164.5 21.5c0-5.519-4.481-10-10-10h-133c-5.519 0-10 4.481-10 10v133c0 5.519 4.481 10 10 10h133c5.519 0 10-4.481 10-10v-133Z" style="fill:#fdf5d9" transform="translate(8 8)"/><circle cx="96" cy="96" r="66.5" style="fill:#4a4a4a" transform="matrix(.76232 0 0 .76232 23.152 22.862)"/><path d="M153.614 129.828c-.213.36-.429.718-.648 1.073l-.004.006H39.706l-.003-.006a67.836 67.836 0 0 1-.648-1.073l-.015-.025h114.589l-.015.025Zm6.15-13.767c-.116.369-.236.737-.359 1.104H33.264l-.014-.043a60.538 60.538 0 0 1-.332-1.019l-.013-.042h126.859Zm2.773-13.693a74.23 74.23 0 0 1-.107 1.047l-.001.008H30.24l-.001-.008a74.23 74.23 0 0 1-.107-1.047l-.005-.049h132.415l-.005.049Zm-.113-13.746c.039.349.075.698.108 1.047l.001.012H30.136l.001-.012c.033-.349.069-.698.108-1.047l.005-.045h132.169l.005.045Zm-3.037-13.751c.119.354.235.71.348 1.067l.001.001H32.933v-.001c.114-.357.23-.713.349-1.067l.012-.036h126.081l.012.036Zm-6.474-13.768c.22.355.436.713.65 1.072l.013.022H39.093l.013-.022c.213-.359.43-.717.65-1.072l.006-.01h113.145l.006.01Z" style="fill:#979797" transform="matrix(.76232 0 0 .76232 22.897 22.828)"/><path d="M88.656 96h-.001l9.365-28.813 2.587-4.599 20.489-11.439 7.067 7.524-2.695 7.118-8.084 2.898-.457-1.502 3.864-6.328-2.237-2.338-3.508 2.237-3.145 10.941-5.992 18.434 4.874-1.484 1.017 2.16-1.843 2.733-5.936 2.399-.017.052h.001l-9.365 28.813-2.587 4.6-20.488 11.439-7.067-7.525 2.694-7.117 8.084-2.898.458 1.501-3.864 6.328 2.237 2.339 3.508-2.237 3.144-10.941 5.992-18.434-4.874 1.484-1.016-2.161 1.843-2.733 5.935-2.398.017-.053Z" style="fill:#fff" transform="matrix(.76232 0 0 .76232 22.897 22.828)"/></svg>

<?xml version="1.0" encoding="UTF-8" standalone="no"?>
<!DOCTYPE svg PUBLIC "-//W3C//DTD SVG 1.1//EN" "http://www.w3.org/Graphics/SVG/1.1/DTD/svg11.dtd">
<svg width="100%" height="100%" viewBox="0 0 192 192" version="1.1" xmlns="http://www.w3.org/2000/svg" xmlns:xlink="http://www.w3.org/1999/xlink" xml:space="preserve" xmlns:serif="http://www.serif.com/" style="fill-rule:evenodd;clip-rule:evenodd;stroke-linejoin:round;stroke-miterlimit:2;">
    <g id="Layer1">
        <g transform="matrix(1,0,0,1,8,8)">
            <path d="M164.5,21.5C164.5,15.981 160.019,11.5 154.5,11.5L21.5,11.5C15.981,11.5 11.5,15.981 11.5,21.5L11.5,154.5C11.5,160.019 15.981,164.5 21.5,164.5L154.5,164.5C160.019,164.5 164.5,160.019 164.5,154.5L164.5,21.5Z" style="fill:rgb(253,245,217);"/>
        </g>
        <g transform="matrix(0.762316,0,0,0.762316,22.8971,22.8283)">
            <g transform="matrix(1,0,0,1,0.334383,0.0447193)">
                <circle cx="96" cy="96" r="66.5" style="fill:rgb(74,74,74);"/>
            </g>
            <g>
                <path d="M153.614,129.828C153.401,130.188 153.185,130.546 152.966,130.901L152.962,130.907L39.706,130.907L39.703,130.901C39.484,130.546 39.268,130.188 39.055,129.828L39.04,129.803L153.629,129.803L153.614,129.828ZM159.764,116.061C159.648,116.43 159.528,116.798 159.405,117.165L33.264,117.165L33.25,117.122C33.136,116.783 33.026,116.444 32.918,116.103L32.905,116.061L159.764,116.061ZM162.537,102.368C162.504,102.717 162.468,103.066 162.43,103.415L162.429,103.423L30.24,103.423L30.239,103.415C30.201,103.066 30.165,102.717 30.132,102.368L30.127,102.319L162.542,102.319L162.537,102.368ZM162.424,88.622C162.463,88.971 162.499,89.32 162.532,89.669L162.533,89.681L30.136,89.681L30.137,89.669C30.17,89.32 30.206,88.971 30.245,88.622L30.25,88.577L162.419,88.577L162.424,88.622ZM159.387,74.871C159.506,75.225 159.622,75.581 159.735,75.938L159.736,75.939L32.933,75.939L32.933,75.938C33.047,75.581 33.163,75.225 33.282,74.871L33.294,74.835L159.375,74.835L159.387,74.871ZM152.913,61.103C153.133,61.458 153.349,61.816 153.563,62.175L153.576,62.197L39.093,62.197L39.106,62.175C39.319,61.816 39.536,61.458 39.756,61.103L39.762,61.093L152.907,61.093L152.913,61.103Z" style="fill:rgb(151,151,151);"/>
            </g>
            <path d="M88.656,96L88.655,96L98.02,67.187L100.607,62.588L121.096,51.149L128.163,58.673L125.468,65.791L117.384,68.689L116.927,67.187L120.791,60.859L118.554,58.521L115.046,60.758L111.901,71.699L105.909,90.133L110.783,88.649L111.8,90.809L109.957,93.542L104.021,95.941L104.004,95.993L104.005,95.993L94.64,124.806L92.053,129.406L71.565,140.845L64.498,133.32L67.192,126.203L75.276,123.305L75.734,124.806L71.87,131.134L74.107,133.473L77.615,131.236L80.759,120.295L86.751,101.861L81.877,103.345L80.861,101.184L82.704,98.451L88.639,96.053L88.656,96Z" style="fill:white;"/>
        </g>
    </g>
</svg>
